package/converter/svg/light/stop.svg

<svg xmlns="http://www.w3.org/2000/svg" viewBox="0 0 384 512"><!-- Font Awesome Pro 6.0.0-alpha2 by @fontawesome - https://fontawesome.com License - https://fontawesome.com/license (Commercial License) --><path d="M320 64H64C28.654 64 0 92.652 0 128V384C0 419.346 28.654 448 64 448H320C355.346 448 384 419.346 384 384V128C384 92.652 355.346 64 320 64ZM352 384C352 401.645 337.645 416 320 416H64C46.355 416 32 401.645 32 384V128C32 110.355 46.355 96 64 96H320C337.645 96 352 110.355 352 128V384Z"/></svg>

<svg xmlns="http://www.w3.org/2000/svg" viewBox="0 0 384 512"><!--! Font Awesome Pro 6.6.0 by @fontawesome - https://fontawesome.com License - https://fontawesome.com/license (Commercial License) Copyright 2024 Fonticons, Inc. --><path d="M320 96c17.7 0 32 14.3 32 32l0 256c0 17.7-14.3 32-32 32L64 416c-17.7 0-32-14.3-32-32l0-256c0-17.7 14.3-32 32-32l256 0zM64 64C28.7 64 0 92.7 0 128L0 384c0 35.3 28.7 64 64 64l256 0c35.3 0 64-28.7 64-64l0-256c0-35.3-28.7-64-64-64L64 64z"/></svg>
